Papirus-Dark/24x24/actions/office-chart-area-percentage.svg

<?xml version="1.0" encoding="UTF-8" standalone="no"?>
<!--Created with Inkscape (http://www.inkscape.org/)-->
<svg id="svg3049" xmlns:rdf="http://www.w3.org/1999/02/22-rdf-syntax-ns#" xmlns="http://www.w3.org/2000/svg" height="24" width="24" version="1.1" xmlns:cc="http://creativecommons.org/ns#" xmlns:dc="http://purl.org/dc/elements/1.1/">
 <defs id="defs3051">
 </defs>
 <metadata id="metadata3054">
  <rdf:RDF>
   <cc:Work rdf:about="">
    <dc:format>image/svg+xml</dc:format>
    <dc:type rdf:resource="http://purl.org/dc/dcmitype/StillImage"/>
    <dc:title/>
   </cc:Work>
  </rdf:RDF>
 </metadata>
 <g id="layer1" transform="translate(-421.71 -523.79)">
  <g id="g4148" transform="translate(4,-4)">
   <path id="rect4509" opacity="0.3" fill="#d3dae3" style="fill:#d3dae3" transform="translate(421.71 531.79)" d="m3 7v4h0.5918l2-2h2.4199l2 2h3.988v-2.3379l-1.875 1.873-0.002-0.002-0.002 0.002-2-2-0.828-0.8281-0.7071-0.707h-5.5859zm9.9766 1.2695-0.87695 0.83008 0.02344 0.023437 0.85352-0.85352zm-6.9711 1.7305l-2 2-0.00781-0.0078v0.0078h-0.9981v1h11v-1h-4.4023l-2-2h-1.5918z"/>
   <path id="rect4223" opacity="1" fill="#d3dae3" transform="translate(421.71 531.79)" d="m2 2v12h12v-1h-11v-1h0.99805v-0.0078l0.00781 0.0078 2-2h1.5918l2 2h4.4024v-1h-3.988l-2.0003-2h-2.4199l-2 2h-0.5918v-9h-1zm2 0v1h1v3h1v-4h-2zm4.5 0c-0.831 0-1.5 0.669-1.5 1.5v1c0 0.831 0.669 1.5 1.5 1.5s1.5-0.669 1.5-1.5v-1c0-0.831-0.669-1.5-1.5-1.5zm4 0c-0.831 0-1.5 0.669-1.5 1.5v1c0 0.831 0.669 1.5 1.5 1.5s1.5-0.669 1.5-1.5v-1c0-0.831-0.669-1.5-1.5-1.5zm-4 1c0.277 0 0.5 0.223 0.5 0.5v1c0 0.277-0.223 0.5-0.5 0.5s-0.5-0.223-0.5-0.5v-1c0-0.277 0.223-0.5 0.5-0.5zm4 0c0.277 0 0.5 0.223 0.5 0.5v1c0 0.277-0.223 0.5-0.5 0.5s-0.5-0.223-0.5-0.5v-1c0-0.277 0.223-0.5 0.5-0.5zm-3.9141 4 0.70703 0.70703 0.82813 0.82812 2 2 0.002-0.002 0.002 0.002l1.875-1.8729v-1.416l-1.877 1.8769-1.295-1.2949-0.828-0.8281h-1.4141z"/>
  </g>
 </g>
</svg>

<?xml version="1.0" encoding="UTF-8" standalone="no"?>
<!--Created with Inkscape (http://www.inkscape.org/)-->
<svg xmlns:dc="http://purl.org/dc/elements/1.1/" xmlns:cc="http://creativecommons.org/ns#" xmlns:rdf="http://www.w3.org/1999/02/22-rdf-syntax-ns#" xmlns:svg="http://www.w3.org/2000/svg" xmlns="http://www.w3.org/2000/svg" xmlns:sodipodi="http://sodipodi.sourceforge.net/DTD/sodipodi-0.dtd" xmlns:inkscape="http://www.inkscape.org/namespaces/inkscape" width="24" height="24" id="svg3049" version="1.1" inkscape:version="0.91 r13725" sodipodi:docname="office-chart-area-percentage.svg" inkscape:export-filename="/home/uri/.kde/share/icons/NITRUX-KDE/16x16/actions/view-right-new.png" inkscape:export-xdpi="30" inkscape:export-ydpi="30">
    <defs id="defs3051">
        <style type="text/css" id="current-color-scheme">
            .ColorScheme-Text { color:#4d4d4d; } .ColorScheme-Background { color:#eff0f1; } .ColorScheme-Highlight { color:#3daee9; } .ColorScheme-ViewText { color:#31363b; } .ColorScheme-ViewBackground { color:#fcfcfc; } .ColorScheme-ViewHover { color:#93cee9; } .ColorScheme-ViewFocus{ color:#3daee9; } .ColorScheme-ButtonText { color:#31363b; } .ColorScheme-ButtonBackground { color:#eff0f1; } .ColorScheme-ButtonHover { color:#93cee9; } .ColorScheme-ButtonFocus{ color:#3daee9; }
        </style>
    </defs>
    <sodipodi:namedview id="base" pagecolor="#ffffff" bordercolor="#666666" borderopacity="1.0" inkscape:pageopacity="0.0" inkscape:pageshadow="2" inkscape:zoom="17.31" inkscape:cx="3.3865272" inkscape:cy="6.8238085" inkscape:document-units="px" inkscape:current-layer="layer1" showgrid="false" fit-margin-top="0" fit-margin-left="0" fit-margin-right="0" fit-margin-bottom="0" inkscape:window-width="1535" inkscape:window-height="839" inkscape:window-x="55" inkscape:window-y="30" inkscape:window-maximized="0" inkscape:showpageshadow="false" borderlayer="true" inkscape:snap-bbox="true" inkscape:snap-global="true" inkscape:object-nodes="true" showguides="false" inkscape:guide-bbox="true">
        <inkscape:grid type="xygrid" id="grid4085"/>
        <sodipodi:guide position="2.0000044,14.00003" orientation="12,0" id="guide4075"/>
        <sodipodi:guide position="14.000004,2.0000296" orientation="-12,0" id="guide4079"/>
        <sodipodi:guide position="14.000004,14.00003" orientation="0,-12" id="guide4081"/>
        <sodipodi:guide position="8,2" orientation="0,1" id="guide4178"/>
    </sodipodi:namedview>
    <metadata id="metadata3054">
        <rdf:RDF>
            <cc:Work rdf:about="">
                <dc:format>
                    image/svg+xml
                </dc:format>
                <dc:type rdf:resource="http://purl.org/dc/dcmitype/StillImage"/>
                <dc:title/>
            </cc:Work>
        </rdf:RDF>
    </metadata>
    <g inkscape:label="Capa 1" inkscape:groupmode="layer" id="layer1" transform="translate(-421.71429,-523.79074)">
        <g id="g4148" transform="translate(4,-4)">
            <path id="rect4509" transform="translate(421.71429,531.79074)" d="m 3,7 0,4 0.5917969,0 2,-2 2.4199219,0 2.ffffff2,2 L 14,11 l 0,-2.3378906 -1.875,1.8730466 -0.002,-0.002 -0.002,0.002 -2,-1.9999998 L 9.2929688,7.7070312 8.5859375,7 3,7 Z m 9.976562,1.2695312 -0.876953,0.8300782 0.02344,0.023437 0.853515,-0.8535157 z M 6.0058594,10 l -2,2 -0.00781,-0.0078 0,0.0078 L 3,12 l 0,1 11,0 0,-1 -4.4023438,0 -2,-2 -1.5917968,0 z" style="color:#4d4d4d;opacity:0.3;fill:#ffffff;fill-opacity:1;stroke:none" inkscape:connector-curvature="0"/>
            <path id="rect4223" transform="translate(421.71429,531.79074)" d="m 2,2 0,11 0,1 1,0 11,0 0,-1 -11,0 0,-1 0.9980469,0 0,-0.0078 0.00781,0.0078 2,-2 1.5917968,0 2,2 L 14,12 14,11 10.011719,11 8.0117188,9 5.5917969,9 l -2,2 L 3,11 3,2 2,2 Z M 4,2 4,3 5,3 5,6 6,6 6,2 5,2 4,2 Z M 8.5,2 C 7.669,2 7,2.669 7,3.5 l 0,1 C 7,5.331 7.669,6 8.5,6 9.331,6 10,5.331 10,4.5 l 0,-1 C 10,2.669 9.331,2 8.5,2 Z m 4,0 C 11.669,2 11,2.669 11,3.5 l 0,1 C 11,5.331 11.669,6 12.5,6 13.331,6 14,5.331 14,4.5 l 0,-1 C 14,2.669 13.331,2 12.5,2 Z m -4,1 C 8.777,3 9,3.223 9,3.5 l 0,1 C 9,4.777 8.777,5 8.5,5 8.223,5 8,4.777 8,4.5 l 0,-1 C 8,3.223 8.223,3 8.5,3 Z m 4,0 C 12.777,3 13,3.223 13,3.5 l 0,1 C 13,4.777 12.777,5 12.5,5 12.223,5 12,4.777 12,4.5 l 0,-1 C 12,3.223 12.223,3 12.5,3 Z m -3.9140625,4 0.7070313,0.7070312 0.8281252,0.828125 2,1.9999998 0.002,-0.002 0.002,0.002 L 14,8.6621094 14,7.2460938 12.123047,9.1230469 10.828125,7.828125 10,7 8.5859375,7 Z" style="opacity:0.72;fill:#ffffff;fill-opacity:1;stroke:none" inkscape:connector-curvature="0"/>
        </g>
    </g>
</svg>
